X:153
%%etbk:tnset id:53,pos:1,rep:3
%%etbk:site1 http://www.thesession.org/tunes/display/636
T: Otter's Holt, The
M: 4/4
L: 1/8
R: reel
K: Bmin
e|:fBBA FEFB|(3ABA FB ABde|fBBA FEFA|
|(3Bcd cA Bcde|fBBA FEFB|(3ABA FB ABde|
|faaf effe|1 dBBA ~B3e:|2 dBAF B3c||
|:d2 fd Adfa|bfaf effe|(3ddd fd Adfa|
bfaf egfe|defd Adfa|bfaf efde|
fBBA FEFA|1 (3Bcd cA B3c:|2 (3Bcd cA ~B3e||
"Burke's Variation B Part"
|:~d3f a2 fa|(3baf af effe|d2 fd adfa|
bfaf effe|dcdf a2 fa|(3baf af effe|
fBBA FEFA|1 (3Bcd cA B3c:|2 (3Bcd cA ~B3e||

